engine/icons/optimized/icon_text_file.svg

<?xml version="1.0" encoding="UTF-8" standalone="no"?>
<svg
   xmlns:dc="http://purl.org/dc/elements/1.1/"
   xmlns:cc="http://creativecommons.org/ns#"
   xmlns:rdf="http://www.w3.org/1999/02/22-rdf-syntax-ns#"
   xmlns:svg="http://www.w3.org/2000/svg"
   xmlns="http://www.w3.org/2000/svg"
   xmlns:sodipodi="http://sodipodi.sourceforge.net/DTD/sodipodi-0.dtd"
   xmlns:inkscape="http://www.inkscape.org/namespaces/inkscape"
   width="16"
   height="16"
   version="1.1"
   viewBox="0 0 16 16"
   id="svg8"
   sodipodi:docname="icon_text_file.svg"
   inkscape:version="0.92.2 2405546, 2018-03-11"
   enable-background="new">
  <metadata
     id="metadata14">
    <rdf:RDF>
      <cc:Work
         rdf:about="">
        <dc:format>image/svg+xml</dc:format>
        <dc:type
           rdf:resource="http://purl.org/dc/dcmitype/StillImage" />
      </cc:Work>
    </rdf:RDF>
  </metadata>
  <defs
     id="defs12" />
  <sodipodi:namedview
     pagecolor="#ffffff"
     bordercolor="#666666"
     borderopacity="1"
     objecttolerance="10"
     gridtolerance="10"
     guidetolerance="10"
     inkscape:pageopacity="0"
     inkscape:pageshadow="2"
     inkscape:window-width="2560"
     inkscape:window-height="1440"
     id="namedview10"
     showgrid="false"
     inkscape:zoom="64"
     inkscape:cx="-0.11275433"
     inkscape:cy="5.0633688"
     inkscape:window-x="1920"
     inkscape:window-y="0"
     inkscape:window-maximized="0"
     inkscape:current-layer="svg8"
     inkscape:snap-grids="true" />
  <path
     style="display:inline;fill:#e0e0e0"
     d="m 13.370548,12.198712 c 0.359546,-0.0075 0.719092,-0.015 1.078638,-0.0225 -0.004,-0.738576 -0.008,-1.477152 -0.01198,-2.215728 -1.429703,0.011985 -2.859406,0.02397 -4.289109,0.035955 0.004,0.759672 0.008,1.519344 0.01198,2.279016 0.40349,-0.01135 0.806981,-0.02271 1.210471,-0.03406 0,1.251681 0,2.503363 0,3.755044 0.666667,0 1.333333,0 2,0 M 6.1005477,12.247152 c 0.332722,0.21587 0.665444,0.431741 0.998166,0.647611 -0.3328629,0.218648 -0.6657258,0.437297 -0.9985887,0.655945 -1e-7,0.818044 -2e-7,1.636088 -3e-7,2.454132 0.5662705,-0.533749 1.1325409,-1.067498 1.6988114,-1.601247 0.6353035,0.532396 1.2706071,1.064791 1.9059106,1.597187 -9.5e-4,-0.757409 -0.0019,-1.514817 -0.00285,-2.272226 -0.2987204,-0.278501 -0.5974407,-0.557002 -0.8961611,-0.835503 0.2983766,-0.205775 0.5967531,-0.41155 0.8951297,-0.617325 0.00283,-0.73844 0.00565,-1.476881 0.00848,-2.215321 -0.63732,0.474447 -1.27464,0.948893 -1.91196,1.42334 C 7.2318406,10.979446 6.6661958,10.475146 6.1005511,9.9708468 M 4.6399123,12.202271 c 0.3595459,-0.0075 0.7190917,-0.015 1.0786376,-0.0225 -0.00399,-0.738576 -0.00799,-1.477152 -0.011985,-2.2157276 -1.4297028,0.011985 -2.8594057,0.02397 -4.2891085,0.035955 0.00399,0.7596716 0.00799,1.5193436 0.011985,2.2790156 0.4034903,-0.01135 0.8069806,-0.02271 1.2104709,-0.03406 0,1.251681 0,2.503363 0,3.755044 0.6666667,0 1.3333333,0 2,0 M 7,1 C 6.81185,1.7526 6.6237,2.5052 6.43555,3.2578 6.0521572,3.3957205 5.6943609,3.6619566 5.3589944,3.3047548 4.8252629,2.9844032 4.2915315,2.6640516 3.7578,2.3437 3.2864333,2.8150667 2.8150667,3.2864333 2.3437,3.7578 2.7421333,4.4225 3.1405667,5.0872 3.539,5.7519 3.3683054,6.121632 3.3058712,6.5625877 2.8157946,6.5467719 2.2105097,6.6978312 1.6052249,6.8488906 0.99994,6.99995 c 0,0.6666667 0,1.3333333 0,2 1.7571667,0 3.5143333,0 5.2715,0 C 5.5845118,7.9199003 6.2580962,6.3373839 7.5001288,6.0629153 8.7083679,5.7047153 10.045643,6.7406952 9.99996,7.99995 c 0.104409,0.4657408 -0.6052318,1.1778026 0.181951,1 1.606006,0 3.212013,0 4.818019,0 0,-0.6666667 0,-1.3333333 0,-2 C 14.24733,6.8118 13.49473,6.62365 12.74213,6.4355 12.603459,6.0528244 12.33852,5.6958457 12.695012,5.3607965 13.015418,4.8264643 13.335824,4.2921322 13.65623,3.7578 13.184863,3.2864333 12.713497,2.8150667 12.24213,2.3437 11.57743,2.7421333 10.91273,3.1405667 10.24803,3.539 9.8782981,3.3683053 9.4373423,3.3058712 9.4531581,2.8157946 9.3020988,2.2105097 9.1510394,1.6052249 8.99998,0.99994 8.3333478,0.99998002 7.6664935,0.99985998 7,1 Z"
     id="path4781-7"
     inkscape:connector-curvature="0" />
</svg>

<svg width="16" height="16" enable-background="new" version="1.1" viewBox="0 0 16 16" xmlns="http://www.w3.org/2000/svg">
<path d="m13.371 12.199c0.35955-0.0075 0.71909-0.015 1.0786-0.0225-4e-3 -0.73858-8e-3 -1.4772-0.01198-2.2157l-4.2891 0.035955c4e-3 0.75967 8e-3 1.5193 0.01198 2.279 0.40349-0.01135 0.80698-0.02271 1.2105-0.03406v3.755h2m-7.27-3.7493c0.33272 0.21587 0.66544 0.43174 0.99817 0.64761-0.33286 0.21865-0.66573 0.4373-0.99859 0.65594l-3e-7 2.4541c0.56627-0.53375 1.1325-1.0675 1.6988-1.6012 0.6353 0.5324 1.2706 1.0648 1.9059 1.5972-9.5e-4 -0.75741-0.0019-1.5148-0.00285-2.2722-0.29872-0.2785-0.59744-0.557-0.89616-0.8355 0.29838-0.20578 0.59675-0.41155 0.89513-0.61732 0.00283-0.73844 0.00565-1.4769 0.00848-2.2153-0.63732 0.47445-1.2746 0.94889-1.912 1.4233-0.56564-0.5043-1.1313-1.0086-1.6969-1.5129m-1.4606 2.2314c0.35955-0.0075 0.71909-0.015 1.0786-0.0225-0.00399-0.73858-0.00799-1.4772-0.011985-2.2157-1.4297 0.011985-2.8594 0.02397-4.2891 0.035955 0.00399 0.75967 0.00799 1.5193 0.011985 2.279 0.40349-0.01135 0.80698-0.02271 1.2105-0.03406v3.755h2m2.3601-15-0.56445 2.2578c-0.38339 0.13792-0.74119 0.40416-1.0766 0.046955-0.53373-0.32035-1.0675-0.6407-1.6012-0.96105l-1.4141 1.4141c0.39843 0.6647 0.79687 1.3294 1.1953 1.9941-0.17069 0.36973-0.23313 0.81069-0.72321 0.79487-0.60528 0.15106-1.2106 0.30212-1.8159 0.45318v2h5.2715c-0.68693-1.08-0.013344-2.6626 1.2287-2.937 1.2082-0.3582 2.5455 0.67778 2.4998 1.937 0.10441 0.46574-0.60523 1.1778 0.18195 1h4.818v-2l-2.2578-0.56445c-0.13867-0.38268-0.40361-0.73965-0.047118-1.0747 0.32041-0.53433 0.64081-1.0687 0.96122-1.603-0.47137-0.47137-0.94273-0.94273-1.4141-1.4141-0.6647 0.39843-1.3294 0.79687-1.9941 1.1953-0.36973-0.17069-0.81069-0.23313-0.79487-0.72321-0.15106-0.60528-0.30212-1.2106-0.45318-1.8159-0.66663 4.002e-5 -1.3335-8.002e-5 -2 6e-5z" fill="#e0e0e0"/>
</svg>
